packages/dnb-ui-lib/assets/icons/person.svg

<svg width="16" height="16" viewBox="0 0 16 16" fill="none" xmlns="http://www.w3.org/2000/svg">
<path d="M10.4053 15.0395C10.4272 15.4531 10.7802 15.7708 11.1938 15.7489C11.6075 15.7271 11.9251 15.3741 11.9033 14.9605L10.4053 15.0395ZM3.91071 14.9605C3.88888 15.3741 4.20651 15.7271 4.62015 15.7489C5.03378 15.7708 5.3868 15.4531 5.40863 15.0395L3.91071 14.9605ZM7.90698 12.1686C8.71777 12.1686 9.2902 12.4709 9.68519 12.9402C10.0962 13.4285 10.3586 14.1532 10.4053 15.0395L11.9033 14.9605C11.8442 13.8414 11.507 12.7753 10.8328 11.9743C10.1426 11.1543 9.14432 10.6686 7.90698 10.6686V12.1686ZM5.40863 15.0395C5.4554 14.1532 5.71776 13.4285 6.12878 12.9402C6.52377 12.4709 7.09619 12.1686 7.90698 12.1686V10.6686C6.66965 10.6686 5.67133 11.1543 4.98115 11.9743C4.307 12.7753 3.96976 13.8414 3.91071 14.9605L5.40863 15.0395ZM11.064 4.90696C11.064 6.65051 9.65053 8.06394 7.90698 8.06394V9.56394C10.479 9.56394 12.564 7.47894 12.564 4.90696H11.064ZM7.90698 8.06394C6.16343 8.06394 4.75 6.65051 4.75 4.90696H3.25C3.25 7.47894 5.335 9.56394 7.90698 9.56394V8.06394ZM4.75 4.90696C4.75 3.16341 6.16343 1.74998 7.90698 1.74998V0.249985C5.335 0.249985 3.25 2.33498 3.25 4.90696H4.75ZM7.90698 1.74998C9.65053 1.74998 11.064 3.16341 11.064 4.90696H12.564C12.564 2.33498 10.479 0.249985 7.90698 0.249985V1.74998Z" fill="black"/>
</svg>

<svg width="16" height="16" viewBox="0 0 16 16" fill="none" xmlns="http://www.w3.org/2000/svg"><path d="M10.405 15.04a.75.75 0 001.498-.08l-1.498.08zm-6.494-.08a.75.75 0 101.498.08l-1.498-.08zm3.996-2.791c.81 0 1.383.302 1.778.771.411.489.674 1.213.72 2.1l1.498-.08c-.059-1.119-.396-2.185-1.07-2.986-.69-.82-1.689-1.305-2.926-1.305v1.5zm-2.498 2.87c.046-.886.309-1.61.72-2.099.395-.47.967-.771 1.778-.771v-1.5c-1.237 0-2.236.485-2.926 1.305-.674.801-1.011 1.867-1.07 2.986l1.498.08zm5.655-10.132a3.157 3.157 0 01-3.157 3.157v1.5a4.657 4.657 0 004.657-4.657h-1.5zM7.907 8.064A3.157 3.157 0 014.75 4.907h-1.5a4.657 4.657 0 004.657 4.657v-1.5zM4.75 4.907A3.157 3.157 0 017.907 1.75V.25A4.657 4.657 0 003.25 4.907h1.5zM7.907 1.75a3.157 3.157 0 013.157 3.157h1.5A4.657 4.657 0 007.907.25v1.5z" fill="#000"/></svg>
